src/assets/filled/Building4.svg

<svg width="24" height="24" viewBox="0 0 24 24"  xmlns="http://www.w3.org/2000/svg">
<path d="M11.3201 3H5.0901C3.1001 3 2.1001 4.01 2.1001 6.02V22H7.5001V18.25C7.5001 17.84 7.8401 17.5 8.2501 17.5C8.6601 17.5 9.0001 17.83 9.0001 18.25V22H14.3001V6.02C14.3001 4.01 13.3101 3 11.3201 3ZM10.7501 12.75H5.8001C5.3901 12.75 5.0501 12.41 5.0501 12C5.0501 11.59 5.3901 11.25 5.8001 11.25H10.7501C11.1601 11.25 11.5001 11.59 11.5001 12C11.5001 12.41 11.1601 12.75 10.7501 12.75ZM10.7501 9H5.8001C5.3901 9 5.0501 8.66 5.0501 8.25C5.0501 7.84 5.3901 7.5 5.8001 7.5H10.7501C11.1601 7.5 11.5001 7.84 11.5001 8.25C11.5001 8.66 11.1601 9 10.7501 9Z" />
<path d="M23 21.2501H20.73V18.2501C21.68 17.9401 22.37 17.0501 22.37 16.0001V14.0001C22.37 12.6901 21.3 11.6201 19.99 11.6201C18.68 11.6201 17.61 12.6901 17.61 14.0001V16.0001C17.61 17.0401 18.29 17.9201 19.22 18.2401V21.2501H1C0.59 21.2501 0.25 21.5901 0.25 22.0001C0.25 22.4101 0.59 22.7501 1 22.7501H19.93C19.95 22.7501 19.96 22.7601 19.98 22.7601C20 22.7601 20.01 22.7501 20.03 22.7501H23C23.41 22.7501 23.75 22.4101 23.75 22.0001C23.75 21.5901 23.41 21.2501 23 21.2501Z" />
</svg>

<?xml version="1.0" encoding="UTF-8"?>
<svg width="24" height="24" viewBox="0 0 24 24" xmlns="http://www.w3.org/2000/svg">
 <path d="m11.32 3h-6.23c-1.99 0-2.99 1.01-2.99 3.02v15.98h5.4v-3.75c0-0.41 0.34-0.75 0.75-0.75s0.75 0.33 0.75 0.75v3.75h5.3v-15.98c0-2.01-0.99-3.02-2.98-3.02zm-0.57 9.75h-4.95c-0.41 0-0.75-0.34-0.75-0.75s0.34-0.75 0.75-0.75h4.95c0.41 0 0.75 0.34 0.75 0.75s-0.34 0.75-0.75 0.75zm0-3.75h-4.95c-0.41 0-0.75-0.34-0.75-0.75s0.34-0.75 0.75-0.75h4.95c0.41 0 0.75 0.34 0.75 0.75s-0.34 0.75-0.75 0.75z"/>
 <path d="m23 21.25h-2.27v-3c0.95-0.31 1.64-1.2 1.64-2.25v-2c0-1.31-1.07-2.38-2.38-2.38s-2.38 1.07-2.38 2.38v2c0 1.04 0.68 1.92 1.61 2.24v3.01h-18.22c-0.41 0-0.75 0.34-0.75 0.75s0.34 0.75 0.75 0.75h18.93c0.02 0 0.03 0.01 0.05 0.01s0.03-0.01 0.05-0.01h2.97c0.41 0 0.75-0.34 0.75-0.75s-0.34-0.75-0.75-0.75z"/>
</svg>
